X:1
T:Jack Campbell
T:Jack Campbell
T:Anselm Lingnau
C:Anselm Lingnau
L:1/8
M:4/4
K:C
V:1 treble 
V:1
 deved ccaf ac bda .A>G |"D" ^F<A A>F"G" G<B B>d |"A" ^c<A A>c"D" d/e/^f/g/ a2 | %3
"D" ^F<A A>F"G" G<B B>d |"A" ^c<A B>c"D" d2 d>A |"D" ^F<A A>F"G" G<B B>d | %6
"A" ^c<A A>c"D" d/e/^f/g/ a2 |"D" ^f<d d>f"Em" g<e e>d |"A" d/^c/B/A/ B>c"D" d2 || a>g | %10
"D" ^f<a a>f a/g/f/e/ d2 |"A" ^c<e e>^f g/f/e/d/ c<A |"D" ^f<a a>f a/g/f/e/ d2 | %13
"Em" g/^f/e/d/"A" f/e/d/^c/"D" d2 a>g |"D" ^f<a a>f a/g/f/e/ d2 |"Em" e>B e/d/^c/B/"A" c<A A>G | %16
"D" ^F<A d>^f"Em" g<e e>d |"A" d/^c/B/A/ B>c"D" d2 |] %18

